images/persona.svg

<svg fill="none" height="89" viewBox="0 0 447 89" width="447" xmlns="http://www.w3.org/2000/svg"><path d="m34.1865 67.8667c-1.2444 0-3.0696-.1245-5.4755-.3734-2.406-.2489-4.8948-.7881-7.4667-1.6177-2.5718-.9126-4.7703-2.2815-6.5955-4.1067l3.7333-5.8489v32.6044h-18.168801v-72.1775c0-2.7378.788141-5.0608 2.364431-6.96889 1.57629-1.90814 3.73332-3.48443 6.47109-4.72887 2.73778-1.24444 5.89038-2.15703 9.45778-2.73777 3.6503-.6637 7.5496-.995546 11.6977-.995546 6.3051 0 11.8222 1.078516 16.551 3.235536 4.8119 2.07407 8.5452 5.59998 11.2 10.57774 2.7378 4.9778 4.1066 11.7807 4.1066 20.4088 0 6.4711-1.12 12.1955-3.36 17.1733-2.2399 4.8948-5.434 8.711-9.5821 11.4488-4.0652 2.7378-9.043 4.1067-14.9333 4.1067zm-5.4755-14.9333c3.3185 0 6.0562-.5808 8.2133-1.7422 2.157-1.1615 3.7748-3.0696 4.8533-5.7244 1.1615-2.7378 1.7422-6.3882 1.7422-10.9511 0-3.8163-.4148-7.0518-1.2444-9.7066-.8297-2.6548-2.2815-4.6874-4.3556-6.0978-1.9911-1.4933-4.8118-2.24-8.4622-2.24-3.9822 0-6.8444.4148-8.5866 1.2445-1.6593.7466-2.4889 1.7422-2.4889 2.9866v29.6177c1.5763.9126 3.3185 1.5763 5.2267 1.9911 1.9081.4148 3.6088.6222 5.1022.6222zm72.25 14.9333c-6.3048 0-11.9048-1.286-16.7996-3.8578-4.8118-2.6548-8.5866-6.3881-11.3244-11.2-2.6548-4.8948-3.9822-10.7021-3.9822-17.4221 0-10.9511 2.6963-19.4133 8.0889-25.3866 5.4755-6.05624 13.274-9.084376 23.3953-9.084376 6.969 0 12.569 1.493326 16.8 4.479976 4.314 2.98666 7.467 7.3422 9.458 13.0666s2.945 12.6933 2.862 20.9066h-47.9109l-1.9911-11.8222h34.595l-2.737 5.8489c-.083-6.72-1.037-11.4489-2.863-14.1866-1.825-2.7378-4.811-4.1067-8.9595-4.1067-2.323 0-4.4385.5808-6.3467 1.7422-1.8251 1.1615-3.277 3.1111-4.3555 5.8489-.9956 2.6548-1.4933 6.3467-1.4933 11.0755 0 5.9733 1.4103 10.5778 4.2311 13.8133 2.9037 3.2355 7.5081 4.8533 13.8129 4.8533 2.323 0 4.605-.2489 6.845-.7467 2.323-.5807 4.48-1.2444 6.471-1.9911 1.991-.7466 3.692-1.4103 5.102-1.9911v15.9289c-2.987 1.2444-6.347 2.24-10.08 2.9866-3.65.8296-7.923 1.2445-12.818 1.2445zm38.892-1.8667v-56.3731c1.161-.99556 3.236-2.11555 6.222-3.35999 2.987-1.3274 6.388-2.48888 10.205-3.48443 3.899-1.07851 7.798-1.61777 11.697-1.61777 3.9 0 6.969.29037 9.209.87111s3.941 1.3274 5.102 2.23999v13.56439c-1.41-.3319-3.194-.5807-5.351-.7467-2.157-.1659-4.397-.2489-6.72-.2489-2.323-.0829-4.521-.0829-6.595 0-2.074.083-3.816.2489-5.227.4978v48.6576zm68.556 1.8667c-4.48 0-8.338-.4978-11.573-1.4934-3.153-.9126-6.14-1.9496-8.96-3.1111v-16.3021c1.742 1.1615 3.692 2.3644 5.849 3.6089 2.157 1.1614 4.521 2.1155 7.093 2.8622 2.655.7466 5.434 1.12 8.338 1.12 2.986 0 5.06-.4978 6.222-1.4934 1.244-1.0785 1.866-2.3644 1.866-3.8577 0-1.4104-.622-2.5304-1.866-3.36-1.245-.9126-2.862-1.6593-4.853-2.24-1.992-.5807-4.107-1.12-6.347-1.6178-1.991-.4148-3.982-1.037-5.973-1.8666-1.992-.9126-3.775-2.1156-5.352-3.6089-1.576-1.4933-2.862-3.3185-3.857-5.4755-.913-2.24-1.369-4.9363-1.369-8.0889 0-4.0652.788-7.4252 2.364-10.08 1.577-2.7377 3.651-4.93624 6.222-6.59549 2.572-1.65925 5.352-2.82073 8.338-3.48443 2.987-.74666 5.891-1.07851 8.711-.99555 5.144.16593 9.209.74666 12.196 1.74221 3.069.91259 5.849 2.11555 8.338 3.60888v14.55998c-2.821-1.5763-5.642-3.0282-8.463-4.3556-2.737-1.4103-5.89-2.1155-9.457-2.1155-3.236 0-5.559.4977-6.969 1.4933-1.411.9956-2.116 2.323-2.116 3.9822 0 1.5763.456 2.8207 1.369 3.7333.996.9126 2.282 1.6593 3.858 2.24 1.576.4978 3.318.9956 5.226 1.4933 2.075.4978 4.19 1.12 6.347 1.8667 2.24.6637 4.314 1.6593 6.222 2.9867 1.991 1.2444 3.568 3.0281 4.729 5.351 1.245 2.24 1.867 5.2267 1.867 8.96-.083 5.0607-1.452 9.1259-4.107 12.1955-2.655 2.9867-6.098 5.1437-10.329 6.4711-4.148 1.2444-8.669 1.8667-13.564 1.8667zm67.252 0c-10.619 0-18.625-2.8208-24.017-8.4622-5.31-5.7245-7.965-14.1037-7.965-25.1377 0-11.8637 2.696-20.3673 8.089-25.51101 5.475-5.22664 13.44-7.839966 23.893-7.839966 7.052 0 12.942 1.202956 17.671 3.608876 4.812 2.32295 8.421 5.9318 10.827 10.8266 2.489 4.8948 3.733 11.2 3.733 18.9155 0 11.034-2.779 19.4132-8.338 25.1377-5.558 5.6414-13.522 8.4622-23.893 8.4622zm0-14.8089c3.07 0 5.6-.7052 7.591-2.1155 2.074-1.4933 3.609-3.6089 4.605-6.3467 1.078-2.8207 1.617-6.2636 1.617-10.3288 0-4.6459-.539-8.2963-1.617-10.9511-.996-2.7377-2.531-4.6874-4.605-5.8488-2.074-1.2445-4.604-1.8667-7.591-1.8667-3.152 0-5.724.6222-7.715 1.8667-1.991 1.2444-3.485 3.2355-4.48 5.9733-.913 2.6548-1.369 6.2637-1.369 10.8266 0 6.3052 1.078 11.034 3.235 14.1866 2.24 3.0696 5.683 4.6044 10.329 4.6044zm42.541-44.67534c1.576-.82963 3.65-1.65925 6.222-2.48888 2.572-.91259 5.392-1.70074 8.462-2.36444s6.139-1.20296 9.209-1.61777c3.152-.41481 6.056-.62222 8.711-.62222 5.641 0 10.453.74666 14.435 2.23999 3.983 1.41037 7.011 3.73332 9.085 6.96886 2.157 3.2355 3.235 7.6326 3.235 13.1911v42.3109h-18.542v-38.5776c0-1.5763-.249-3.0282-.747-4.3556-.414-1.3274-1.078-2.4474-1.991-3.3599-.912-.9956-2.157-1.7423-3.733-2.24-1.576-.5808-3.484-.8711-5.724-.8711-1.908 0-3.817.2488-5.725.7466-1.908.4148-3.36.8711-4.355 1.3689v47.2887h-18.542zm97.61 59.48424c-3.816 0-7.425-.3734-10.826-1.12-3.319-.6637-6.264-1.7837-8.836-3.36-2.489-1.6593-4.438-3.8578-5.849-6.5956-1.41-2.8207-2.115-6.3051-2.115-10.4532 0-3.8993.788-7.3008 2.364-10.2044 1.659-2.9037 4.148-5.1437 7.467-6.72 3.318-1.5763 7.508-2.3645 12.569-2.3645 2.82 0 5.558.2904 8.213.8712 2.655.5807 5.019 1.3688 7.093 2.3644 2.157.9955 3.858 2.0741 5.102 3.2355l.747 8.96c-1.659-.9956-3.65-1.7837-5.973-2.3644-2.323-.5808-4.812-.8711-7.467-.8711-4.065 0-7.052.6222-8.96 1.8666-1.825 1.1615-2.738 3.0281-2.738 5.6 0 1.5763.457 2.9866 1.369 4.2311.913 1.2444 2.116 2.1985 3.609 2.8622 1.576.6637 3.194.9955 4.853.9955 4.232 0 7.177-.2903 8.836-.8711 1.742-.5807 2.613-1.7422 2.613-3.4844v-23.1466c0-3.8162-1.244-6.554-3.733-8.2133-2.406-1.7422-5.849-2.6133-10.329-2.6133-3.65 0-7.342.6637-11.075 1.9911-3.651 1.2445-6.637 2.7793-8.96 4.6044v-16.42656c2.157-1.3274 5.475-2.57184 9.955-3.73332 4.563-1.16147 9.665-1.74221 15.307-1.74221 1.991 0 4.189.16592 6.595.49777 2.406.33186 4.812.95408 7.218 1.86666 2.406.82963 4.605 2.07407 6.596 3.73332 2.074 1.65925 3.733 3.77484 4.977 6.34664 1.245 2.5718 1.867 5.7659 1.867 9.5822l-.124 29.7421c0 3.5674-1.203 6.4711-3.609 8.7111-2.406 2.157-5.891 3.7333-10.454 4.7288-4.48.9956-9.914 1.4934-16.302 1.4934z" fill="#000" opacity=".04"/></svg>

<svg width="447" height="89" viewBox="0 0 447 89" fill="none" xmlns="http://www.w3.org/2000/svg">
<path opacity="0.04" d="M34.1865 67.8667C32.9421 67.8667 31.1169 67.7422 28.711 67.4933C26.305 67.2444 23.8162 66.7052 21.2443 65.8756C18.6725 64.963 16.474 63.5941 14.6488 61.7689L18.3821 55.92V88.5244H0.213299V16.3469C0.213299 13.6091 1.00144 11.2861 2.57773 9.37801C4.15402 7.46987 6.31105 5.89358 9.04882 4.64914C11.7866 3.4047 14.9392 2.49211 18.5066 1.91137C22.1569 1.24767 26.0562 0.915824 30.2043 0.915824C36.5094 0.915824 42.0265 1.99434 46.7553 4.15136C51.5672 6.22543 55.3005 9.75134 57.9553 14.7291C60.6931 19.7069 62.0619 26.5098 62.0619 35.1379C62.0619 41.609 60.9419 47.3334 58.7019 52.3112C56.462 57.206 53.2679 61.0222 49.1198 63.76C45.0546 66.4978 40.0768 67.8667 34.1865 67.8667ZM28.711 52.9334C32.0295 52.9334 34.7672 52.3526 36.9243 51.1912C39.0813 50.0297 40.6991 48.1216 41.7776 45.4668C42.9391 42.729 43.5198 39.0786 43.5198 34.5157C43.5198 30.6994 43.105 27.4639 42.2754 24.8091C41.4457 22.1543 39.9939 20.1217 37.9198 18.7113C35.9287 17.218 33.108 16.4713 29.4576 16.4713C25.4754 16.4713 22.6132 16.8861 20.871 17.7158C19.2117 18.4624 18.3821 19.458 18.3821 20.7024V50.3201C19.9584 51.2327 21.7006 51.8964 23.6088 52.3112C25.5169 52.726 27.2176 52.9334 28.711 52.9334ZM100.961 67.8667C94.6562 67.8667 89.0562 66.5807 84.1614 64.0089C79.3496 61.3541 75.5748 57.6208 72.837 52.8089C70.1822 47.9141 68.8548 42.1068 68.8548 35.3868C68.8548 24.4357 71.5511 15.9735 76.9437 10.0002C82.4192 3.94396 90.2177 0.915824 100.339 0.915824C107.308 0.915824 112.908 2.40915 117.139 5.3958C121.453 8.38246 124.606 12.738 126.597 18.4624C128.588 24.1868 129.542 31.1557 129.459 39.369H81.5481L79.557 27.5468H114.152L111.415 33.3957C111.332 26.6757 110.378 21.9468 108.552 19.2091C106.727 16.4713 103.741 15.1024 99.5925 15.1024C97.2695 15.1024 95.154 15.6832 93.2458 16.8446C91.4207 18.0061 89.9688 19.9557 88.8903 22.6935C87.8947 25.3483 87.397 29.0402 87.397 33.769C87.397 39.7423 88.8073 44.3468 91.6281 47.5823C94.5318 50.8178 99.1362 52.4356 105.441 52.4356C107.764 52.4356 110.046 52.1867 112.286 51.6889C114.609 51.1082 116.766 50.4445 118.757 49.6978C120.748 48.9512 122.449 48.2875 123.859 47.7067V63.6356C120.872 64.88 117.512 65.8756 113.779 66.6222C110.129 67.4518 105.856 67.8667 100.961 67.8667ZM139.853 66V9.6269C141.014 8.63134 143.089 7.51135 146.075 6.26691C149.062 4.93951 152.463 3.77803 156.28 2.78248C160.179 1.70397 164.078 1.16471 167.977 1.16471C171.877 1.16471 174.946 1.45508 177.186 2.03582C179.426 2.61656 181.127 3.36322 182.288 4.27581V17.8402C180.878 17.5083 179.094 17.2595 176.937 17.0935C174.78 16.9276 172.54 16.8446 170.217 16.8446C167.894 16.7617 165.696 16.7617 163.622 16.8446C161.548 16.9276 159.806 17.0935 158.395 17.3424V66H139.853ZM208.409 67.8667C203.929 67.8667 200.071 67.3689 196.836 66.3733C193.683 65.4607 190.696 64.4237 187.876 63.2622V46.9601C189.618 48.1216 191.568 49.3245 193.725 50.569C195.882 51.7304 198.246 52.6845 200.818 53.4312C203.473 54.1778 206.252 54.5512 209.156 54.5512C212.142 54.5512 214.216 54.0534 215.378 53.0578C216.622 51.9793 217.244 50.6934 217.244 49.2001C217.244 47.7897 216.622 46.6697 215.378 45.8401C214.133 44.9275 212.516 44.1808 210.525 43.6001C208.533 43.0194 206.418 42.4801 204.178 41.9823C202.187 41.5675 200.196 40.9453 198.205 40.1157C196.213 39.2031 194.43 38.0001 192.853 36.5068C191.277 35.0135 189.991 33.1883 188.996 31.0313C188.083 28.7913 187.627 26.095 187.627 22.9424C187.627 18.8772 188.415 15.5172 189.991 12.8624C191.568 10.1247 193.642 7.92616 196.213 6.26691C198.785 4.60766 201.565 3.44618 204.551 2.78248C207.538 2.03582 210.442 1.70397 213.262 1.78693C218.406 1.95286 222.471 2.53359 225.458 3.52914C228.527 4.44173 231.307 5.64469 233.796 7.13802V21.698C230.975 20.1217 228.154 18.6698 225.333 17.3424C222.596 15.9321 219.443 15.2269 215.876 15.2269C212.64 15.2269 210.317 15.7246 208.907 16.7202C207.496 17.7158 206.791 19.0432 206.791 20.7024C206.791 22.2787 207.247 23.5231 208.16 24.4357C209.156 25.3483 210.442 26.095 212.018 26.6757C213.594 27.1735 215.336 27.6713 217.244 28.169C219.319 28.6668 221.434 29.289 223.591 30.0357C225.831 30.6994 227.905 31.695 229.813 33.0224C231.804 34.2668 233.381 36.0505 234.542 38.3734C235.787 40.6134 236.409 43.6001 236.409 47.3334C236.326 52.3941 234.957 56.4593 232.302 59.5289C229.647 62.5156 226.204 64.6726 221.973 66C217.825 67.2444 213.304 67.8667 208.409 67.8667ZM275.661 67.8667C265.042 67.8667 257.036 65.0459 251.644 59.4045C246.334 53.68 243.679 45.3008 243.679 34.2668C243.679 22.4031 246.375 13.8995 251.768 8.75579C257.243 3.52915 265.208 0.915824 275.661 0.915824C282.713 0.915824 288.603 2.11878 293.332 4.5247C298.144 6.84765 301.753 10.4565 304.159 15.3513C306.648 20.2461 307.892 26.5513 307.892 34.2668C307.892 45.3008 305.113 53.68 299.554 59.4045C293.996 65.0459 286.032 67.8667 275.661 67.8667ZM275.661 53.0578C278.731 53.0578 281.261 52.3526 283.252 50.9423C285.326 49.449 286.861 47.3334 287.857 44.5956C288.935 41.7749 289.474 38.332 289.474 34.2668C289.474 29.6209 288.935 25.9705 287.857 23.3157C286.861 20.578 285.326 18.6283 283.252 17.4669C281.178 16.2224 278.648 15.6002 275.661 15.6002C272.509 15.6002 269.937 16.2224 267.946 17.4669C265.955 18.7113 264.461 20.7024 263.466 23.4402C262.553 26.095 262.097 29.7039 262.097 34.2668C262.097 40.572 263.175 45.3008 265.332 48.4534C267.572 51.523 271.015 53.0578 275.661 53.0578ZM318.202 8.38246C319.778 7.55283 321.852 6.72321 324.424 5.89358C326.996 4.98099 329.816 4.19284 332.886 3.52914C335.956 2.86544 339.025 2.32618 342.095 1.91137C345.247 1.49656 348.151 1.28915 350.806 1.28915C356.447 1.28915 361.259 2.03581 365.241 3.52914C369.224 4.93951 372.252 7.26246 374.326 10.498C376.483 13.7335 377.561 18.1306 377.561 23.6891V66H359.019V27.4224C359.019 25.8461 358.77 24.3942 358.272 23.0668C357.858 21.7394 357.194 20.6194 356.281 19.7069C355.369 18.7113 354.124 17.9646 352.548 17.4669C350.972 16.8861 349.064 16.5958 346.824 16.5958C344.916 16.5958 343.007 16.8446 341.099 17.3424C339.191 17.7572 337.739 18.2135 336.744 18.7113V66H318.202V8.38246ZM415.812 67.8667C411.996 67.8667 408.387 67.4933 404.986 66.7467C401.667 66.083 398.722 64.963 396.15 63.3867C393.661 61.7274 391.712 59.5289 390.301 56.7911C388.891 53.9704 388.186 50.486 388.186 46.3379C388.186 42.4386 388.974 39.0371 390.55 36.1335C392.209 33.2298 394.698 30.9898 398.017 29.4135C401.335 27.8372 405.525 27.049 410.586 27.049C413.406 27.049 416.144 27.3394 418.799 27.9202C421.454 28.5009 423.818 29.289 425.892 30.2846C428.049 31.2801 429.75 32.3587 430.994 33.5201L431.741 42.4801C430.082 41.4845 428.091 40.6964 425.768 40.1157C423.445 39.5349 420.956 39.2446 418.301 39.2446C414.236 39.2446 411.249 39.8668 409.341 41.1112C407.516 42.2727 406.603 44.1393 406.603 46.7112C406.603 48.2875 407.06 49.6978 407.972 50.9423C408.885 52.1867 410.088 53.1408 411.581 53.8045C413.157 54.4682 414.775 54.8 416.434 54.8C420.666 54.8 423.611 54.5097 425.27 53.9289C427.012 53.3482 427.883 52.1867 427.883 50.4445V27.2979C427.883 23.4817 426.639 20.7439 424.15 19.0846C421.744 17.3424 418.301 16.4713 413.821 16.4713C410.171 16.4713 406.479 17.135 402.746 18.4624C399.095 19.7069 396.109 21.2417 393.786 23.0668V6.64024C395.943 5.31284 399.261 4.0684 403.741 2.90692C408.304 1.74545 413.406 1.16471 419.048 1.16471C421.039 1.16471 423.237 1.33063 425.643 1.66248C428.049 1.99434 430.455 2.61656 432.861 3.52914C435.267 4.35877 437.466 5.60321 439.457 7.26246C441.531 8.92171 443.19 11.0373 444.434 13.6091C445.679 16.1809 446.301 19.375 446.301 23.1913L446.177 52.9334C446.177 56.5008 444.974 59.4045 442.568 61.6445C440.162 63.8015 436.677 65.3778 432.114 66.3733C427.634 67.3689 422.2 67.8667 415.812 67.8667Z" fill="black"/>
</svg>
